X:1
T:Aria Math for Guitar Duet
T:Aria Math for Guitar Duet
%%score 1 2
L:1/8
Q:1/4=80
M:4/4
K:C
V:1 tab stafflines=6 strings=E2,A2,D3,G3,B3,E4 nm="Acoustic Guitar" snm="Guit."
V:2 tab stafflines=6 strings=E2,A2,D3,G3,B3,E4 nm="Acoustic Guitar" snm="Guit."
V:1
 !5!C,/!2!B,!1!E/ !4!E,!2!B, !4!E,!3!G,/!2!C/ !2!B,!3!G, | %1
 !5!C,/!2!B,!1!E/ !4!E,!2!B, !4!E,!3!G,/!2!C/ !2!B,!3!G, | %2
 !5!C,/!2!B,!1!E/ !4!E,!2!B, !4!E,!3!G,/!2!C/ !2!B,!3!G, | %3
 !5!C,/!2!B,!1!E/ !4!E,!2!B, !4!E,!3!G,/!2!C/ !2!B,!3!G, | %4
 !5!C,/!2!B,!1!E/ !4!E,!2!B, !4!E,!3!G,/!2!C/ !2!B,!3!G, | %5
 !5!C,/!2!B,!1!E/ !4!E,!2!B, !4!E,!3!G,/!2!C/ !2!B,!3!G, | %6
 !4!E,/!2!B,!1!E/ !4!E,!2!B, !4!E,!3!G,/!2!C/ !2!B,!3!G, | %7
 !4!E,/!2!B,!1!E/ !4!E,!2!B, !4!E,!3!G,/!2!C/ !2!B,!3!A, | %8
 !5!C,/!2!B,!1!E/ !4!E,!2!B, !5!C,!3!G,/!2!C/ !2!B,!3!G, | %9
 !5!C,/!2!B,!1!E/ !4!E,!2!B, !5!C,!3!G,/!2!C/ !2!B,!3!G, | %10
 !4!E,/!2!B,!1!E/ !4!E,!2!B, !4!E,!3!G,/!2!C/ !2!B,!3!G, | %11
 !4!E,/!2!B,!1!E/ !4!E,!2!B, !4!E,!3!G,/!2!C/ !2!B,!3!A, | %12
 !5!C,/!2!B,!1!E/ !4!E,!2!B, !5!C,!3!G,/!2!C/ !2!B,!3!G, | %13
 !5!C,/!2!B,!1!E/ !4!E,!2!B, !5!C,!3!G,/!2!C/ !2!B,!3!G, | %14
 !4!E,/!2!B,!1!E/ !4!E,!2!B, !4!E,!3!G,/!2!C/ !2!B,!3!G, | %15
 !4!E,/!2!B,!1!E/ !4!E,!2!B, !4!E,!3!G,/!2!C/ !2!B,!3!A, | %16
 !5!C,/ x !1!E/ !4!E,!2!B, !5!C,!3!G,/!2!C/ !2!B,!3!G, | %17
 !5!C,/!2!B,!1!E/ !4!E,!2!B, !5!C,!3!G,/!2!C/ !2!B,!3!G, | %18
 !4!E,/!2!B,!1!E/ !4!E,!2!B, !4!E,!3!G,/!2!C/ !2!B,!3!G, | %19
 !4!E,/!2!B,!1!E/ !4!E,!2!B, !4!E,!3!G,/!2!C/ !2!B,!3!A, | %20
 !5!C,/!2!B,!1!E/ !4!E,!2!B, !5!C,!3!G,/!2!C/ !2!B,!3!G, | %21
 !5!C,/!2!B,!1!E/ !4!E,!2!B, !5!C,!3!G,/!2!C/ !2!B,!3!G, | %22
 !4!E,/!2!B,!1!E/ !4!E,!2!B, !4!E,!3!G,/!2!C/ !2!B,!3!G, | %23
 !4!E,/!2!B,!1!E/ !4!E,!2!B, !4!E,!3!G,/!2!C/ !2!B,!3!A, | %24
 !6!E,,/!2!B,!1!E/ !6!E,,!2!B, !6!E,,!3!G,/!2!C/ !2!B,!3!G, | %25
 !6!G,,/!2!B,!1!E/ !6!G,,!2!B, !6!G,,!3!G,/!2!C/ !2!B,!3!G, | %26
 !4!D,/!2!B,!1!E/ !4!D,!2!B, !4!D,!3!G,/!2!C/ !2!B,!3!G, | %27
 !5!C,/!2!B,!1!E/ !5!C,!2!B, !5!C,!3!G,/!2!C/ !2!B,!3!A, | %28
 !6!E,,/!2!B,!1!E/ !6!E,,!2!B, !6!E,,!3!G,/!2!C/ !2!B,!3!G, | %29
 !6!G,,/!2!B,!1!E/ !6!G,,!2!B, !6!G,,!3!G,/!2!C/ !2!B,!3!G, | %30
 !4!D,/!2!B,!1!E/ !4!D,!2!B, !4!D,!3!G,/!2!C/ !2!B,!3!G, | %31
 !5!C,/!2!B,!1!E/ !5!C,!2!B, !5!C,!3!G,/!2!C/ !>!!2!B, x |] %32
V:2
 x8 | x8 | x8 | x8 | x8 | x8 | x8 | x8 | %8
 x/ !1!e/!2!B/!3!G/ !1!e/!2!B/!3!G/!1!e/ !2!B/!3!G/!1!e/!2!B/ !3!G/!1!e/!2!B/!3!G/ | %9
 [!3!D!2!E!1!A]4 [!3!B,!2!E!1!G]4 | [!3!G,!2!B,!1!E]8 | x8 | x8 | x8 | x8 | x8 | %16
 !4!B,>!3!E !2!G4 x/ x/ !3!_G | !3!G!2!B/ !1!E4 x/ !1!d!2!B | !2!^F3/2 [!3!B,!1!E]6 x/ | x8 | %20
 !2!B>!3!E !2!G4 x/ x/ !3!_G | !3!G!2!B/ !1!E4 x/ !1!d!2!B | !2!^F3/2 [!2!B,!1!E]6 x/ | x8 | %24
 !4!B,>!3!E !2!G4 x/ x/ !3!_G | !3!G!2!B/ !1!E4 x/ !1!d!2!B | !2!^F3/2 [!3!B,!2!E]6 x/ | x8 | %28
 !2!B>!3!E !2!G4 x/ x/ !3!_G | !3!G!2!B/ !1!E4 x/ !1!d!2!B | !2!^F3/2 [!3!B,!2!E]6 x/ | x8 |] %32

